!!!OTL: "Das Prager Wunderkind" O ALLERSCHOENSTES JESULEIN
!!!ARE: Europa, Mitteleuropa, Deutschland, Boehmerwald
!!!SCT: Z1059
!!!YEM: Copyright 1995, estate of Helmut Schaffrath.
**kern
*ICvox
*Ivox
*M4/4
*k[b-e-]
*B-:
{4f
=1
4b-
4b-
4b-
4f
=2
4d
4e-
4f
8r}
{8f
=3
4d
4e-
4f
4b-
=4
4a
4b-
4cc}
{4cc
=5
4b-
4b-
4b-
4f
=6
4d
4e-
4.f}
{8f
=7
4d
4e-
4f
4b-
=8
4.cc
8a
4.b-}
{16b-
16cc
=9
4dd
4cc
4dd
4ff
=10
4.cc
8cc
4cc}
{4a
=11
4b-
4a
4b-
4cc
=12
4a
4g
4f}
{4f
=13
4b-
4b-
4b-
4f
=14
4d
4e-
4f}
{4b-
=15
4dd
8cc
8b-
4cc
8a
8a
=16
2b-
4r}
==
!!!AGN: Romanze, Ballade
!!!ONB: ESAC (Essen Associative Code) Database: ZUCCAL
!!!AMT: simple quadruple
!!!AIN: vox
!!!EED: Helmut Schaffrath
!!!EEV: 1.0
*-
